app/dist/common/images/abc-mart.svg

<svg height="18" viewBox="0 0 18 18" width="18" xmlns="http://www.w3.org/2000/svg"><path d="m0 0h18v18h-18z" fill="#ffda00"/><g fill="#e21b13"><path d="m6 6h-3v1h.36l-.94 4h-.42v1h2v-1h-.44l.23-1h.98l.22 1h-.49v1h2.5v-1h-.42l-.9-4h.32zm-1.46 3h-.51l.26-1.1zm4.46-1.87v1.12c.3 0 .55-.25.55-.56a.55.55 0 0 0 -.55-.57zm0 2.62v1.13c.3 0 .55-.26.55-.57a.55.55 0 0 0 -.55-.56zm-.18 2.25h-1.82v-1h.5v-4h-.5v-1h2.38c.86 0 1.56.73 1.56 1.63 0 .57-.28 1.07-.7 1.36a1.63 1.63 0 0 1 -.86 3.01z"/><path d="m12.97 6c.51 0 .72.3.83.44v-.44h1.2v2h-1.2c0-.5-.05-1-.49-1-.43 0-.81 1-.81 1.9 0 .89.28 2.1.8 2.1.4 0 .48-.93.5-1.25.28.04.98.19 1.2.19-.19 1.2-.78 2.06-1.78 2.06s-2.22-.79-2.22-3.1c0-2.33 1.33-2.9 1.97-2.9z"/></g></svg>

<!-- by TradingView --><svg width="18" height="18" viewBox="0 0 18 18" xmlns="http://www.w3.org/2000/svg"><path fill="#FFDA00" d="M0 0h18v18H0z"/><path d="M6 6H3v1h.36l-.94 4H2v1h2v-1h-.44l.23-1h.98l.22 1H4.5v1H7v-1h-.42l-.9-4H6V6ZM4.54 9h-.51l.26-1.1.25 1.1ZM9 7.13v1.12c.3 0 .55-.25.55-.56A.55.55 0 0 0 9 7.12H9Zm0 2.62v1.13c.3 0 .55-.26.55-.57A.55.55 0 0 0 9 9.75H9ZM8.82 12H7v-1h.5V7H7V6h2.38c.86 0 1.56.73 1.56 1.63 0 .57-.28 1.07-.7 1.36A1.63 1.63 0 0 1 9.38 12H8.82Z" fill="#E21B13"/><path d="M12.97 6c.51 0 .72.3.83.44V6H15v2h-1.2c0-.5-.05-1-.49-1-.43 0-.81 1-.81 1.9 0 .89.28 2.1.8 2.1.4 0 .48-.93.5-1.25.28.04.98.19 1.2.19-.19 1.2-.78 2.06-1.78 2.06S11 11.21 11 8.9C11 6.57 12.33 6 12.97 6Z" fill="#E21B13"/></svg>
